Newaita-dark/actions/32/gnumeric-object-button.svg

<svg height="32" viewBox="0 0 32 32" width="32" xmlns="http://www.w3.org/2000/svg"><path d="m5.292969 6.863281c-1.464844 0-2.648438 1.183594-2.648438 2.648438v13.230469c0 1.464843 1.183594 2.644531 2.648438 2.644531h21.167969c1.464843 0 2.644531-1.179688 2.644531-2.644531v-13.230469c0-1.464844-1.179688-2.648438-2.644531-2.648438zm2.445312 2.648438h3.261719l3.542969 13.230469h-3.257813zm4.632813 0h3.257812l3.546875 13.230469h-3.261719zm4.628906 0h3.261719l3.542969 13.230469h-3.257813zm4.628906 0h3.507813c.734375 0 1.324219.589843 1.324219 1.324219v10.582031c0 .722656-.570313 1.304687-1.285157 1.324219zm-15.253906.019531 3.539062 13.210938h-3.300781c-.730469 0-1.320312-.589844-1.320312-1.324219v-10.582031c0-.652344.464843-1.191407 1.082031-1.304688zm0 0" fill="#e0e0e0"/></svg>

<?xml version="1.0" encoding="UTF-8"?>
<svg xmlns="http://www.w3.org/2000/svg" xmlns:xlink="http://www.w3.org/1999/xlink" width="32px" height="32px" viewBox="0 0 32 32" version="1.1">
<g id="surface1">
<path style=" stroke:none;fill-rule:nonzero;fill:rgb(87.843138%,87.843138%,87.843138%);fill-opacity:1;" d="M 5.292969 6.863281 C 3.828125 6.863281 2.644531 8.046875 2.644531 9.511719 L 2.644531 22.742188 C 2.644531 24.207031 3.828125 25.386719 5.292969 25.386719 L 26.460938 25.386719 C 27.925781 25.386719 29.105469 24.207031 29.105469 22.742188 L 29.105469 9.511719 C 29.105469 8.046875 27.925781 6.863281 26.460938 6.863281 Z M 7.738281 9.511719 L 11 9.511719 L 14.542969 22.742188 L 11.285156 22.742188 Z M 12.371094 9.511719 L 15.628906 9.511719 L 19.175781 22.742188 L 15.914062 22.742188 Z M 17 9.511719 L 20.261719 9.511719 L 23.804688 22.742188 L 20.546875 22.742188 Z M 21.628906 9.511719 L 25.136719 9.511719 C 25.871094 9.511719 26.460938 10.101562 26.460938 10.835938 L 26.460938 21.417969 C 26.460938 22.140625 25.890625 22.722656 25.175781 22.742188 Z M 6.375 9.53125 L 9.914062 22.742188 L 6.613281 22.742188 C 5.882812 22.742188 5.292969 22.152344 5.292969 21.417969 L 5.292969 10.835938 C 5.292969 10.183594 5.757812 9.644531 6.375 9.53125 Z M 6.375 9.53125 "/>
</g>
</svg>
